src/pos-icons/cloud-question.svg

<svg height="24" viewBox="0 0 24 24" width="24" xmlns="http://www.w3.org/2000/svg"><path d="m19.35 10.03c-.68-3.44-3.71-6.03-7.35-6.03-2.89 0-5.4 1.64-6.65 4.03-3.01.33-5.35 2.87-5.35 5.97a6 6 0 0 0 6 6h13a5 5 0 0 0 5-5c0-2.64-2.05-4.78-4.65-4.97m-6.35 6.97h-2v-2h2zm1.8-5.18c-.3.39-.67.68-1.13.93-.26.16-.43.32-.52.51s-.15.43-.15.74h-2c0-.55.11-.92.3-1.18.2-.26.55-.57 1.07-.91.26-.16.47-.35.63-.59.15-.23.23-.51.23-.82 0-.32-.09-.56-.27-.74-.18-.2-.46-.29-.76-.29-.27 0-.49.08-.7.23-.15.15-.25.38-.25.69h-1.97c-.05-.75.22-1.39.78-1.8.54-.39 1.25-.59 2.14-.59.94 0 1.69.23 2.23.68s.81 1.07.81 1.82c0 .5-.15.91-.44 1.32z"/></svg>

<?xml version="1.0" encoding="UTF-8"?><!DOCTYPE svg PUBLIC "-//W3C//DTD SVG 1.1//EN" "http://www.w3.org/Graphics/SVG/1.1/DTD/svg11.dtd"><svg xmlns="http://www.w3.org/2000/svg" xmlns:xlink="http://www.w3.org/1999/xlink" version="1.1" id="mdi-cloud-question" width="24" height="24" viewBox="0 0 24 24"><path d="M19.35,10.03C18.67,6.59 15.64,4 12,4C9.11,4 6.6,5.64 5.35,8.03C2.34,8.36 0,10.9 0,14A6,6 0 0,0 6,20H19A5,5 0 0,0 24,15C24,12.36 21.95,10.22 19.35,10.03M13,17H11V15H13V17M14.8,11.82C14.5,12.21 14.13,12.5 13.67,12.75C13.41,12.91 13.24,13.07 13.15,13.26C13.06,13.45 13,13.69 13,14H11C11,13.45 11.11,13.08 11.3,12.82C11.5,12.56 11.85,12.25 12.37,11.91C12.63,11.75 12.84,11.56 13,11.32C13.15,11.09 13.23,10.81 13.23,10.5C13.23,10.18 13.14,9.94 12.96,9.76C12.78,9.56 12.5,9.47 12.2,9.47C11.93,9.47 11.71,9.55 11.5,9.7C11.35,9.85 11.25,10.08 11.25,10.39H9.28C9.23,9.64 9.5,9 10.06,8.59C10.6,8.2 11.31,8 12.2,8C13.14,8 13.89,8.23 14.43,8.68C14.97,9.13 15.24,9.75 15.24,10.5C15.24,11 15.09,11.41 14.8,11.82Z" /></svg>
